X: 6535
T: Caterpillar, The
R: slip jig
M: 9/8
K: Eminor
E2 B A2 F d3|E2 B A2 F GFD|E2 B A2 F d2 e|e2 B A2 d dBA:|
B2 e g2 f d3|B2 e b2 a f2 g|g2 f d2 B e3|e2 B A2 d dBA:|
B3 BAB d2 e|B3 BAG FGA|B3 BAB d2 e|1 gef deB dAB:|2 gef deB dBA||

